X: 40418
T: Tom McElvogue's
R: slip jig
M: 9/8
K: Dmixolydian
(d|:c)AA cAA AGE|cAA cAA f2d|cAA cAA AGE|1 DED DE/F/A BGd:|2 DED DE/F/A B2d||
|:cde gee fdd|cde gee f3|cde gee fdd|edB cBA G3:|

